X:207
T:The Elm Tree Reel
R:reel
C:Bruce Osborne - Jan. 2003
Z:abc by bosborne@kos.net
M:2/4
L:1/8
K:G
G/A/|BB/c/ B/A/G/E/|D/E/D/B,/ D/F/G/A/|BB/c/ B/A/G/B/|A/G/A/B/ AG/A/|\
BB/c/ B/A/G/E/|D/E/D/B,/ D/F/G/A/|B/A/G/B/ A/G/F/A/|G/B/A/F/ G:|\
G/A/|BB/c/ B/A/G/A/|B/g/f/e/ dB/c/|d/g/f/g/ d/B/G/B/|A/G/A/B/ AG/A/|\
BB/c/ B/A/G/A/|B/g/f/e/ dB/c/|d/g/f/g/ d/B/G/B/|c/A/F/A/ G:|
